svg/m/SI.svg

<svg width="20" height="15" viewBox="0 0 20 15" fill="none" xmlns="http://www.w3.org/2000/svg">
<mask id="mask0" mask-type="alpha" maskUnits="userSpaceOnUse" x="0" y="0" width="20" height="15">
<rect width="20" height="15" fill="white"/>
</mask>
<g mask="url(#mask0)">
<path fill-rule="evenodd" clip-rule="evenodd" d="M0 0V15H20V0H0Z" fill="#2E42A5"/>
<mask id="mask1" mask-type="alpha" maskUnits="userSpaceOnUse" x="0" y="0" width="20" height="15">
<path fill-rule="evenodd" clip-rule="evenodd" d="M0 0V15H20V0H0Z" fill="white"/>
</mask>
<g mask="url(#mask1)">
<path fill-rule="evenodd" clip-rule="evenodd" d="M0 0V5H20V0H0Z" fill="#F7FCFF"/>
<path fill-rule="evenodd" clip-rule="evenodd" d="M0 10V15H20V10H0Z" fill="#C51918"/>
<path fill-rule="evenodd" clip-rule="evenodd" d="M8.58762 3.14758C8.58762 3.14758 7.27216 2.52637 5.63603 2.52637C3.99991 2.52637 2.68445 3.14758 2.68445 3.14758C2.68445 3.14758 2.83084 5.64427 3.06222 6.9669C3.16101 7.53162 3.63584 8.35527 4.06572 8.74511C4.5557 9.18946 5.63603 9.71589 5.63603 9.71589C5.94866 9.50046 6.5332 9.40359 7.28035 8.74511C8.0275 8.08664 8.2132 6.9669 8.2132 6.9669L8.58762 3.14758Z" fill="#2E42A5"/>
<path d="M8.41374 3.06592L8.96157 3.3395L8.5855 7.10363C8.45378 7.9003 8.12421 8.52855 7.59716 8.99304C7.31125 9.24502 7.03217 9.43329 6.73296 9.58972C6.56407 9.67803 5.8576 10.0419 5.86376 10.039C5.79298 10.0731 5.7393 10.103 5.6957 10.133L5.62737 10.1801L5.5536 10.1441C4.82187 9.78759 4.13918 9.30775 3.79992 9.00009C3.33681 8.58011 2.84851 7.7207 2.7444 7.1256C2.58875 6.23582 2.44916 5.01025 2.3512 3.3395L2.84332 3.08203C2.94055 4.74021 3.05791 6.06203 3.21076 6.93575C3.30119 7.45268 3.75147 8.24517 4.16224 8.61769C4.46582 8.893 4.95491 9.19827 5.62737 9.53027C5.66748 9.50677 5.71194 9.4835 5.76279 9.45899C5.76422 9.4583 6.22167 9.25516 6.38065 9.17204C6.65949 9.02625 6.91867 8.8514 7.18552 8.61622C7.65338 8.20389 7.94539 7.64859 8.06348 6.94316L8.41374 3.06592Z" fill="#C51918"/>
<path fill-rule="evenodd" clip-rule="evenodd" d="M3.46381 6.89015C3.46381 6.89015 3.58304 7.25494 3.80348 7.66462C4.1272 7.74999 4.32528 7.7455 4.38789 7.67542C4.569 7.4727 5.2134 7.38608 5.33364 7.55925C5.40782 7.66609 5.66856 7.73995 5.95366 7.64223L5.92187 7.64785C5.97139 7.62985 6.08738 7.58387 6.15888 7.55553L6.2171 7.53258C6.32443 7.49208 6.4033 7.47082 6.48364 7.46485C6.58435 7.45736 6.68093 7.47611 6.78326 7.52484C7.0082 7.63194 7.28575 7.68185 7.47476 7.64942C7.70579 7.24703 7.87054 6.89015 7.87054 6.89015L6.77348 5.83728L6.33744 6.31045L5.61296 5.27759L5.00642 6.31045L4.54133 5.83728L3.46381 6.89015ZM4.09803 8.13409C4.04739 8.06581 3.99953 7.99525 3.95454 7.92406C4.23533 7.97526 4.42599 7.94834 4.53206 7.82962C4.58216 7.77354 4.73081 7.71916 4.89994 7.69643C4.97879 7.68583 5.05444 7.68319 5.11244 7.68872C5.13905 7.69126 5.1605 7.69542 5.17494 7.70041C5.17962 7.70203 5.17947 7.70182 5.17462 7.69487L5.17374 7.69361C5.30307 7.87852 5.65417 7.97763 5.98544 7.85719L5.95366 7.86281C6.04326 7.83527 6.20464 7.77181 6.26264 7.74901L6.28283 7.74111C6.3748 7.70641 6.43819 7.68932 6.49731 7.68493C6.56549 7.67986 6.62983 7.69235 6.70281 7.7271C6.902 7.82195 7.13355 7.87838 7.33764 7.87984C7.29413 7.9502 7.24921 8.02018 7.20338 8.08817C7.04473 8.12499 6.79929 8.07658 6.6013 7.96846C6.50875 7.91793 6.42038 7.89825 6.32823 7.90611C6.25537 7.91232 6.18471 7.93415 6.08926 7.97546C6.08369 7.97787 6.0641 7.98677 6.03771 7.99877C5.97528 8.02715 5.87483 8.0728 5.83207 8.09063L5.86797 8.0834C5.62019 8.17898 5.4033 8.10852 5.34138 8.00624C5.23088 7.82372 4.65174 7.913 4.48881 8.12215C4.44537 8.17791 4.31428 8.18809 4.09803 8.13409ZM4.31366 8.38968C4.32586 8.40222 4.33819 8.41457 4.35063 8.4267C4.91513 8.97711 5.61296 9.24691 5.61296 9.24691C5.61296 9.24691 6.44413 8.99539 6.91587 8.46586C6.95612 8.42068 6.99645 8.37174 7.03656 8.32C6.86453 8.31149 6.67543 8.25547 6.51127 8.16583C6.45094 8.13289 6.39901 8.12133 6.34389 8.12603C6.29514 8.13018 6.24176 8.14668 6.16341 8.18058C6.1613 8.1815 6.15618 8.1838 6.14865 8.18719C6.10068 8.2088 5.95498 8.2744 5.86797 8.30399L5.90387 8.29676C5.61186 8.41851 5.30182 8.32239 5.1809 8.14004C5.17018 8.13582 5.15337 8.1321 5.13206 8.12977C5.08354 8.12446 5.01948 8.12702 4.95251 8.13735C4.80901 8.15947 4.68369 8.21205 4.64225 8.26524C4.57257 8.35468 4.46331 8.39418 4.31366 8.38968Z" fill="white"/>
<path fill-rule="evenodd" clip-rule="evenodd" d="M4.46673 3.67881H4.02728L4.36812 3.3595L4.02728 3.0221H4.46673L4.65228 2.69458L4.83858 3.0221H5.27728L4.95349 3.33924L5.241 3.67881H4.83858L4.65228 4.02443L4.46673 3.67881Z" fill="#FECA00"/>
<path fill-rule="evenodd" clip-rule="evenodd" d="M6.53784 3.67881H6.09839L6.43923 3.3595L6.09839 3.0221H6.53784L6.72339 2.69458L6.90969 3.0221H7.34839L7.02459 3.33924L7.3121 3.67881H6.90969L6.72339 4.02443L6.53784 3.67881Z" fill="#FECA00"/>
<path fill-rule="evenodd" clip-rule="evenodd" d="M5.37494 4.72959H4.93549L5.27632 4.41029L4.93549 4.07288H5.37494L5.56049 3.74536L5.74678 4.07288H6.18549L5.86169 4.39002L6.1492 4.72959H5.74678L5.56049 5.07521L5.37494 4.72959Z" fill="#FECA00"/>
</g>
</g>
</svg>

<svg width="20" height="15" fill="none" xmlns="http://www.w3.org/2000/svg">
  <mask id="a" maskUnits="userSpaceOnUse" x="0" y="0" width="20" height="15">
    <path fill="#fff" d="M0 0h20v15H0z"/>
  </mask>
  <g mask="url(#a)">
    <path fill-rule="evenodd" clip-rule="evenodd" d="M0 0v15h20V0H0z" fill="#2E42A5"/>
    <mask id="b" maskUnits="userSpaceOnUse" x="0" y="0" width="20" height="15">
      <path fill-rule="evenodd" clip-rule="evenodd" d="M0 0v15h20V0H0z" fill="#fff"/>
    </mask>
    <g mask="url(#b)">
      <path fill-rule="evenodd" clip-rule="evenodd" d="M0 0v5h20V0H0z" fill="#F7FCFF"/>
      <path fill-rule="evenodd" clip-rule="evenodd" d="M0 10v5h20v-5H0z" fill="#C51918"/>
      <path fill-rule="evenodd" clip-rule="evenodd" d="M8.588 3.148s-1.316-.622-2.952-.622-2.952.622-2.952.622.147 2.496.378 3.819c.099.565.574 1.388 1.004 1.778.49.445 1.57.971 1.57.971.313-.215.897-.312 1.644-.97.748-.66.933-1.779.933-1.779l.375-3.82z" fill="#2E42A5"/>
      <path d="M8.414 3.066l.548.274-.377 3.764c-.131.796-.46 1.425-.988 1.89-.286.251-.565.44-.864.596l-.87.45a1.15 1.15 0 00-.167.093l-.069.047-.073-.036C4.822 9.788 4.139 9.308 3.8 9c-.463-.42-.951-1.28-1.056-1.874-.155-.89-.295-2.116-.393-3.786l.492-.258c.098 1.658.215 2.98.368 3.854.09.517.54 1.31.951 1.682.304.275.793.58 1.465.912.04-.023.085-.046.136-.07.001-.002.459-.205.618-.288a3.98 3.98 0 00.805-.556c.467-.412.76-.967.877-1.673l.35-3.877z" fill="#C51918"/>
      <path fill-rule="evenodd" clip-rule="evenodd" d="M3.464 6.89s.119.365.34.775c.323.085.521.08.584.01.181-.202.825-.289.946-.116.074.107.335.181.62.083l-.032.006c.05-.018.165-.064.237-.092l.058-.023a.937.937 0 01.267-.068c.1-.008.197.011.3.06.224.107.502.157.69.124.232-.402.397-.759.397-.759L6.773 5.837l-.436.473-.724-1.032-.607 1.032-.465-.473L3.464 6.89zm.634 1.244a3.42 3.42 0 01-.143-.21c.28.051.471.024.577-.094.05-.056.199-.11.368-.134a.978.978 0 01.212-.007.286.286 0 01.063.011c.005.002.004.002 0-.005l-.001-.001c.129.185.48.284.811.163l-.031.006c.09-.028.25-.091.309-.114l.02-.008a.77.77 0 01.214-.056.392.392 0 01.206.042c.199.095.43.151.635.153a7.41 7.41 0 01-.135.208c-.158.037-.404-.011-.602-.12a.47.47 0 00-.273-.062.751.751 0 00-.239.07 10.445 10.445 0 01-.257.115l.036-.008c-.248.096-.465.026-.527-.077-.11-.182-.69-.093-.852.116-.044.056-.175.066-.391.012zm.216.256l.037.037c.564.55 1.262.82 1.262.82s.831-.252 1.303-.781c.04-.045.08-.094.12-.146a1.262 1.262 0 01-.525-.154.284.284 0 00-.167-.04.586.586 0 00-.195.061 4 4 0 01-.281.117l.036-.007c-.292.122-.602.025-.723-.157a.202.202 0 00-.049-.01.723.723 0 00-.18.007c-.143.022-.268.075-.31.128-.07.09-.179.13-.328.125z" fill="#fff"/>
      <path fill-rule="evenodd" clip-rule="evenodd" d="M4.467 3.679h-.44l.341-.32-.34-.337h.439l.185-.327.187.327h.438l-.323.317.287.34h-.402l-.187.346-.185-.346zm2.071 0h-.44l.341-.32-.34-.337h.439l.185-.327.187.327h.438l-.323.317.287.34H6.91l-.187.346-.185-.346zM5.375 4.73h-.44l.341-.32-.34-.337h.439l.185-.328.187.328h.438l-.323.317.287.34h-.402l-.187.345-.185-.345z" fill="#FECA00"/>
    </g>
  </g>
</svg>
